Numix-Circle/48x48/apps/steam_icon_219830.svg

<?xml version="1.0" encoding="UTF-8" standalone="no"?>
<svg
   xmlns:dc="http://purl.org/dc/elements/1.1/"
   xmlns:cc="http://creativecommons.org/ns#"
   xmlns:rdf="http://www.w3.org/1999/02/22-rdf-syntax-ns#"
   xmlns:svg="http://www.w3.org/2000/svg"
   xmlns="http://www.w3.org/2000/svg"
   xmlns:xlink="http://www.w3.org/1999/xlink"
   xmlns:sodipodi="http://sodipodi.sourceforge.net/DTD/sodipodi-0.dtd"
   xmlns:inkscape="http://www.inkscape.org/namespaces/inkscape"
   viewBox="0 0 48 48"
   id="svg14100"
   version="1.1"
   inkscape:version="0.91 r13725"
   width="100%"
   height="100%"
   sodipodi:docname="steam_icon_219830.svg">
  <metadata
     id="metadata14159">
    <rdf:RDF>
      <cc:Work
         rdf:about="">
        <dc:format>image/svg+xml</dc:format>
        <dc:type
           rdf:resource="http://purl.org/dc/dcmitype/StillImage" />
        <dc:title />
      </cc:Work>
    </rdf:RDF>
  </metadata>
  <sodipodi:namedview
     pagecolor="#ffffff"
     bordercolor="#666666"
     borderopacity="1"
     objecttolerance="10"
     gridtolerance="10"
     guidetolerance="10"
     inkscape:pageopacity="0"
     inkscape:pageshadow="2"
     inkscape:window-width="1366"
     inkscape:window-height="737"
     id="namedview14157"
     showgrid="false"
     inkscape:zoom="8.5681996"
     inkscape:cx="-7.5940032"
     inkscape:cy="23.334214"
     inkscape:window-x="0"
     inkscape:window-y="0"
     inkscape:window-maximized="1"
     inkscape:current-layer="svg14100"
     showguides="true"
     inkscape:snap-bbox="true"
     inkscape:snap-midpoints="true"
     inkscape:object-paths="false"
     inkscape:snap-bbox-edge-midpoints="true">
    <inkscape:grid
       type="xygrid"
       id="grid3957"
       empspacing="5"
       visible="true"
       enabled="true"
       snapvisiblegridlinesonly="true" />
  </sodipodi:namedview>
  <defs
     id="defs14102">
    <linearGradient
       id="linearGradient3053">
      <stop
         style="stop-color:#729cd9;stop-opacity:1;"
         offset="0"
         id="stop3055" />
      <stop
         style="stop-color:#87aade;stop-opacity:1;"
         offset="1"
         id="stop3057" />
    </linearGradient>
    <linearGradient
       inkscape:collect="always"
       xlink:href="#linearGradient3053"
       id="linearGradient3877"
       x1="1"
       y1="24"
       x2="47"
       y2="24"
       gradientUnits="userSpaceOnUse" />
    <linearGradient
       inkscape:collect="always"
       xlink:href="#linearGradient3053"
       id="linearGradient3879"
       gradientUnits="userSpaceOnUse"
       x1="24.817499"
       y1="47.150494"
       x2="24"
       y2="1" />
  </defs>
  <g
     id="g14119">
    <path
       d="m 36.31 5 c 5.859 4.062 9.688 10.831 9.688 18.5 c 0 12.426 -10.07 22.5 -22.5 22.5 c -7.669 0 -14.438 -3.828 -18.5 -9.688 c 1.037 1.822 2.306 3.499 3.781 4.969 c 4.085 3.712 9.514 5.969 15.469 5.969 c 12.703 0 23 -10.298 23 -23 c 0 -5.954 -2.256 -11.384 -5.969 -15.469 c -1.469 -1.475 -3.147 -2.744 -4.969 -3.781 z m 4.969 3.781 c 3.854 4.113 6.219 9.637 6.219 15.719 c 0 12.703 -10.297 23 -23 23 c -6.081 0 -11.606 -2.364 -15.719 -6.219 c 4.16 4.144 9.883 6.719 16.219 6.719 c 12.703 0 23 -10.298 23 -23 c 0 -6.335 -2.575 -12.06 -6.719 -16.219 z"
       opacity="0.05"
       id="path14121" />
    <path
       d="m 41.28 8.781 c 3.712 4.085 5.969 9.514 5.969 15.469 c 0 12.703 -10.297 23 -23 23 c -5.954 0 -11.384 -2.256 -15.469 -5.969 c 4.113 3.854 9.637 6.219 15.719 6.219 c 12.703 0 23 -10.298 23 -23 c 0 -6.081 -2.364 -11.606 -6.219 -15.719 z"
       opacity="0.1"
       id="path14123" />
    <path
       d="m 31.25 2.375 c 8.615 3.154 14.75 11.417 14.75 21.13 c 0 12.426 -10.07 22.5 -22.5 22.5 c -9.708 0 -17.971 -6.135 -21.12 -14.75 a 23 23 0 0 0 44.875 -7 a 23 23 0 0 0 -16 -21.875 z"
       opacity="0.2"
       id="path14125" />
  </g>
  <g
     id="g14127"
     style="fill:url(#linearGradient3877);fill-opacity:1.0">
    <path
       d="m 24 1 c 12.703 0 23 10.297 23 23 c 0 12.703 -10.297 23 -23 23 -12.703 0 -23 -10.297 -23 -23 0 -12.703 10.297 -23 23 -23 z"
       id="path14129"
       style="fill:url(#linearGradient3879);fill-opacity:1"
       fill-opacity="1"
       fill="url(#linearGradient3764)" />
  </g>
  <g
     id="g14131" />
  <g
     transform="matrix(0.85759961,0,0,0.85759961,5.3529911,3.0842181)"
     id="g3309"
     style="opacity:0.1;fill:#000000">
    <path
       sodipodi:nodetypes="ccccc"
       inkscape:connector-curvature="0"
       id="path3311"
       d="m 14.385066,30.097452 c 5.932246,9.711788 12.865502,9.711788 18.840112,0 0.206977,-1.646897 0,-15.759922 0,-15.759922 l -18.840112,0 c 0,0 -0.302293,14.569299 0,15.759922 z"
       style="fill:#000000;stroke:none" />
    <path
       style="fill:#000000;stroke:none"
       d="m 16.093952,29.617954 c 4.853656,8.249797 10.526321,8.249797 15.414637,0 0.169345,-1.398978 0,-13.387461 0,-13.387461 l -15.414637,0 c 0,0 -0.247331,12.376072 0,13.387461 z"
       id="path3313"
       inkscape:connector-curvature="0"
       sodipodi:nodetypes="ccccc" />
  </g>
  <g
     id="g3219"
     transform="matrix(0.85759961,0,0,0.85759961,4.4953915,2.2266185)">
    <path
       style="fill:#784421;stroke:none"
       d="m 14.385066,30.097452 c 5.932246,9.711788 12.865502,9.711788 18.840112,0 0.206977,-1.646897 0,-15.759922 0,-15.759922 l -18.840112,0 c 0,0 -0.302293,14.569299 0,15.759922 z"
       id="path4125"
       inkscape:connector-curvature="0"
       sodipodi:nodetypes="ccccc" />
    <path
       sodipodi:nodetypes="ccccc"
       inkscape:connector-curvature="0"
       id="path4127"
       d="m 16.093952,29.617954 c 4.853656,8.249797 10.526321,8.249797 15.414637,0 0.169345,-1.398978 0,-13.387461 0,-13.387461 l -15.414637,0 c 0,0 -0.247331,12.376072 0,13.387461 z"
       style="fill:#502d16;stroke:none" />
  </g>
  <g
     transform="matrix(0.85759961,0,0,0.85759961,5.3417481,3.4112183)"
     id="g3327"
     style="opacity:0.1;fill:#000000">
    <rect
       ry="0.68357337"
       y="16.020058"
       x="-0.34711912"
       height="36.102459"
       width="1.9600701"
       id="rect3329"
       style="fill:#000000;stroke:none"
       transform="matrix(0.71163866,-0.70254567,0.68359622,0.7298604,0,0)" />
    <rect
       ry="1.0054327"
       y="18.161077"
       x="-5.7062564"
       height="7.6958313"
       width="12.813181"
       id="rect3331"
       style="fill:#000000;stroke:none"
       transform="matrix(0.71163866,-0.70254567,0.68359622,0.7298604,0,0)" />
  </g>
  <g
     id="g3317"
     transform="matrix(0.85759961,0,0,0.85759961,4.4841485,2.5536152)">
    <rect
       transform="matrix(0.71163866,-0.70254567,0.68359622,0.7298604,0,0)"
       style="fill:#784421;stroke:none"
       id="rect4121"
       width="1.9600701"
       height="36.102459"
       x="-0.34711912"
       y="16.020058"
       ry="0.68357337" />
    <rect
       transform="matrix(0.71163866,-0.70254567,0.68359622,0.7298604,0,0)"
       style="fill:#808080;stroke:none"
       id="rect4123"
       width="12.813181"
       height="7.6958313"
       x="-5.7062564"
       y="18.161077"
       ry="1.0054327" />
  </g>
  <g
     transform="matrix(0.92620749,0,0,0.92620749,3.9827863,1.4651535)"
     id="g3279"
     style="opacity:0.1;fill:#000000">
    <g
       id="g3281"
       style="fill:#000000">
      <path
         sodipodi:nodetypes="cccccc"
         inkscape:connector-curvature="0"
         id="path3283"
         d="M 35.507778,11.646953 34.836528,14.668126 16.40237,33.573457 14.130564,31.237799 32.56472,12.33247 35.507812,11.646916 15.610585,32.052773 z"
         style="fill:#000000;stroke:none" />
      <path
         inkscape:connector-curvature="0"
         id="path3285"
         d="M 15.539054,32.052773 35.460509,11.632185 32.577022,12.312664 14.403469,30.950224 z"
         style="fill:#000000;stroke:none" />
    </g>
    <rect
       transform="matrix(0.6973088,0.71677084,-0.69817875,0.71592349,0,0)"
       ry="0.69720775"
       y="11.165332"
       x="32.751595"
       height="6.9024014"
       width="1.6291362"
       id="rect3287"
       style="fill:#000000;stroke:none" />
    <path
       inkscape:connector-curvature="0"
       id="path3289"
       d="m 12.916864,29.990668 4.698975,4.830164 0,0"
       style="fill:#000000;stroke:#502d16;stroke-width:0.89606524" />
  </g>
  <g
     id="g3212"
     transform="matrix(0.92620749,0,0,0.92620749,3.1251867,0.60755393)">
    <g
       id="g3204">
      <path
         style="fill:#666666;stroke:none"
         d="M 35.507778,11.646953 34.836528,14.668126 16.40237,33.573457 14.130564,31.237799 32.56472,12.33247 35.507812,11.646916 15.610585,32.052773 z"
         id="path4113"
         inkscape:connector-curvature="0"
         sodipodi:nodetypes="cccccc" />
      <path
         style="fill:#999999;stroke:none"
         d="M 15.539054,32.052773 35.460509,11.632185 32.577022,12.312664 14.403469,30.950224 z"
         id="path3202"
         inkscape:connector-curvature="0" />
    </g>
    <rect
       style="fill:#784421;stroke:none"
       id="rect4117"
       width="1.6291362"
       height="6.9024014"
       x="32.751595"
       y="11.165332"
       ry="0.69720775"
       transform="matrix(0.6973088,0.71677084,-0.69817875,0.71592349,0,0)" />
    <path
       style="fill:#502d16;stroke:#502d16;stroke-width:0.89606524"
       d="m 12.916864,29.990668 4.698975,4.830164 0,0"
       id="path4115"
       inkscape:connector-curvature="0" />
  </g>
  <g
     id="g14153">
    <path
       d="m 40.03 7.531 c 3.712 4.084 5.969 9.514 5.969 15.469 0 12.703 -10.297 23 -23 23 c -5.954 0 -11.384 -2.256 -15.469 -5.969 4.178 4.291 10.01 6.969 16.469 6.969 c 12.703 0 23 -10.298 23 -23 0 -6.462 -2.677 -12.291 -6.969 -16.469 z"
       opacity="0.1"
       id="path14155" />
  </g>
</svg>

<svg xmlns="http://www.w3.org/2000/svg" xmlns:xlink="http://www.w3.org/1999/xlink" viewBox="0 0 48 48"><defs><linearGradient id="linearGradient3053"><stop stop-color="#729cd9" stop-opacity="1"/><stop offset="1" stop-color="#87aade" stop-opacity="1"/></linearGradient><linearGradient xlink:href="#linearGradient3053" id="linearGradient3877" x1="1" x2="47" gradientUnits="userSpaceOnUse"/><linearGradient xlink:href="#linearGradient3053" id="linearGradient3879" gradientUnits="userSpaceOnUse" x1="24.817" y1="47.15" x2="24" y2="1"/></defs><g><path d="m 36.31 5 c 5.859 4.062 9.688 10.831 9.688 18.5 c 0 12.426 -10.07 22.5 -22.5 22.5 c -7.669 0 -14.438 -3.828 -18.5 -9.688 c 1.037 1.822 2.306 3.499 3.781 4.969 c 4.085 3.712 9.514 5.969 15.469 5.969 c 12.703 0 23 -10.298 23 -23 c 0 -5.954 -2.256 -11.384 -5.969 -15.469 c -1.469 -1.475 -3.147 -2.744 -4.969 -3.781 z m 4.969 3.781 c 3.854 4.113 6.219 9.637 6.219 15.719 c 0 12.703 -10.297 23 -23 23 c -6.081 0 -11.606 -2.364 -15.719 -6.219 c 4.16 4.144 9.883 6.719 16.219 6.719 c 12.703 0 23 -10.298 23 -23 c 0 -6.335 -2.575 -12.06 -6.719 -16.219 z" opacity="0.05"/><path d="m 41.28 8.781 c 3.712 4.085 5.969 9.514 5.969 15.469 c 0 12.703 -10.297 23 -23 23 c -5.954 0 -11.384 -2.256 -15.469 -5.969 c 4.113 3.854 9.637 6.219 15.719 6.219 c 12.703 0 23 -10.298 23 -23 c 0 -6.081 -2.364 -11.606 -6.219 -15.719 z" opacity="0.1"/><path d="m 31.25 2.375 c 8.615 3.154 14.75 11.417 14.75 21.13 c 0 12.426 -10.07 22.5 -22.5 22.5 c -9.708 0 -17.971 -6.135 -21.12 -14.75 a 23 23 0 0 0 44.875 -7 a 23 23 0 0 0 -16 -21.875 z" opacity="0.2"/></g><g fill="url(#linearGradient3877)" fill-opacity="1"><path d="m 24 1 c 12.703 0 23 10.297 23 23 c 0 12.703 -10.297 23 -23 23 -12.703 0 -23 -10.297 -23 -23 0 -12.703 10.297 -23 23 -23 z" fill="url(#linearGradient3879)"/></g><g transform="matrix(0.85759961,0,0,0.85759961,5.3529911,3.0842181)" opacity="0.1" fill="#000"><path d="m 14.385 30.1 c 5.932 9.712 12.866 9.712 18.84 0 0.207 -1.647 0 -15.76 0 -15.76 l -18.84 0 c 0 0 -0.302 14.569 0 15.76 z" fill="#000" stroke="none"/><path d="m 16.09 29.618 c 4.854 8.25 10.526 8.25 15.415 0 0.169 -1.399 0 -13.387 0 -13.387 l -15.415 0 c 0 0 -0.247 12.376 0 13.387 z" fill="#000" stroke="none"/></g><g transform="matrix(0.85759961,0,0,0.85759961,4.4953915,2.2266185)"><path d="m 14.385 30.1 c 5.932 9.712 12.866 9.712 18.84 0 0.207 -1.647 0 -15.76 0 -15.76 l -18.84 0 c 0 0 -0.302 14.569 0 15.76 z" fill="#784421" stroke="none"/><path d="m 16.09 29.618 c 4.854 8.25 10.526 8.25 15.415 0 0.169 -1.399 0 -13.387 0 -13.387 l -15.415 0 c 0 0 -0.247 12.376 0 13.387 z" fill="#502d16" stroke="none"/></g><g transform="matrix(0.85759961,0,0,0.85759961,5.3417481,3.4112183)" opacity="0.1" fill="#000"><rect y="16.02" x="-0.347" height="36.1" width="1.96" transform="matrix(0.71163866,-0.70254567,0.68359622,0.7298604,0,0)" fill="#000" stroke="none" rx="0.684"/><rect y="18.16" x="-5.706" height="7.696" width="12.813" transform="matrix(0.71163866,-0.70254567,0.68359622,0.7298604,0,0)" fill="#000" stroke="none" rx="1.01"/></g><g transform="matrix(0.85759961,0,0,0.85759961,4.4841485,2.5536152)"><rect transform="matrix(0.71163866,-0.70254567,0.68359622,0.7298604,0,0)" width="1.96" height="36.1" x="-0.347" y="16.02" fill="#784421" stroke="none" rx="0.684"/><rect transform="matrix(0.71163866,-0.70254567,0.68359622,0.7298604,0,0)" width="12.813" height="7.696" x="-5.706" y="18.16" fill="#808080" stroke="none" rx="1.01"/></g><g transform="matrix(0.92620749,0,0,0.92620749,3.9827863,1.4651535)" opacity="0.1" fill="#000"><g fill="#000"><path d="m 35.508 11.647 -0.671 3.02 -18.434 18.905 -2.272 -2.336 18.434 -18.905 2.943 -0.686 -19.897 20.406 z" fill="#000" stroke="none"/><path d="m 15.539 32.05 19.921 -20.421 -2.883 0.68 -18.17 18.638 z" fill="#000" stroke="none"/></g><rect transform="matrix(0.6973088,0.71677084,-0.69817875,0.71592349,0,0)" y="11.165" x="32.752" height="6.902" width="1.629" fill="#000" stroke="none" rx="0.697"/><path d="m 12.917 29.991 4.699 4.83 0 0" fill="#000" stroke="#502d16" stroke-width="0.896"/></g><g transform="matrix(0.92620749,0,0,0.92620749,3.1251867,0.60755393)"><g><path d="m 35.508 11.647 -0.671 3.02 -18.434 18.905 -2.272 -2.336 18.434 -18.905 2.943 -0.686 -19.897 20.406 z" fill="#666" stroke="none"/><path d="m 15.539 32.05 19.921 -20.421 -2.883 0.68 -18.17 18.638 z" fill="#999" stroke="none"/></g><rect width="1.629" height="6.902" x="32.752" y="11.165" transform="matrix(0.6973088,0.71677084,-0.69817875,0.71592349,0,0)" fill="#784421" stroke="none" rx="0.697"/><path d="m 12.917 29.991 4.699 4.83 0 0" fill="#502d16" stroke="#502d16" stroke-width="0.896"/></g><g><path d="m 40.03 7.531 c 3.712 4.084 5.969 9.514 5.969 15.469 0 12.703 -10.297 23 -23 23 c -5.954 0 -11.384 -2.256 -15.469 -5.969 4.178 4.291 10.01 6.969 16.469 6.969 c 12.703 0 23 -10.298 23 -23 0 -6.462 -2.677 -12.291 -6.969 -16.469 z" opacity="0.1"/></g></svg>
